X:78
T:Spadill
M:6/8
L:1/8
B:Thompson's Compleat Collection of 200 Favourite Country Dances, vol. 3 (London, 1773)
Z:Transcribed and edited by Flynn Titford-Mock, 2007
Z:abc's:AK/Fiddler's Companion
K:Bb
B2 d>f | e>g c>e | d>f B>d | (3cec (3AFA | B2 d>f | e>g c>b | (3agf (3cd=e | f2 F2 :|
|: (3f_af (3dfd | (3=BdB (3GBd | (3ege (3cec | (3AcA (3FAc | (3BFB (3dBd | (3fdf (3bfe | (3dcB (3FGA | B2 B,2 :|

